static/logos/basecamp-glyph-color.svg

<svg width="50" height="50" viewBox="0 0 50 50" fill="none" xmlns="http://www.w3.org/2000/svg">
<g clip-path="url(#clip0_1_3427)">
<path d="M45.1755 30.6804C44.1104 30.6804 43.282 29.852 43.1637 28.7869C42.4536 18.6094 36.8915 4.26024 26.566 4.26024C18.0453 4.26024 11.6252 10.1774 7.4832 21.923C7.12817 22.9881 5.94474 23.5798 4.87965 23.1064C3.81457 22.7514 3.22285 21.5679 3.69622 20.6212C8.42995 7.10048 16.1518 0.236572 26.566 0.236572C40.2051 0.236572 46.4773 17.5443 47.1873 28.5502C47.3057 29.6153 46.4773 30.6804 45.2939 30.6804H45.1755Z" fill="#1D2D35"/>
<path opacity="0.4" d="M49.9089 34.5858L14.3468 49.2899L0.234375 15.1481L6.62489 12.5445L35.8852 0.562256L49.9089 34.5858Z" fill="#FFE000"/>
<path d="M48.2573 38.5207L10.565 46.3313L3.10938 10.1775L9.38156 8.8757L40.8017 2.36682L48.2573 38.5207Z" fill="#FFE000"/>
<path d="M26.0909 38.1656C19.227 38.1656 12.5702 35.207 7.95485 29.9999C7.36313 29.5265 7.24479 28.6981 7.48148 27.9881C8.78325 24.5561 12.2152 16.5975 16.5939 16.4792C18.8424 16.4792 20.4992 18.2543 21.801 19.6744C22.156 20.1478 22.7477 20.7395 23.2211 21.0946C24.2862 20.0295 26.298 16.7159 27.8365 13.2839C28.3099 12.2188 29.4933 11.8638 30.5584 12.3372C31.6235 12.8105 31.9785 13.994 31.5051 15.0591C26.7714 25.3549 24.2862 25.3549 23.3395 25.3549C21.446 25.3549 20.1442 23.9348 18.8424 22.5147C18.2507 21.923 17.0673 20.6212 16.5939 20.6212C15.5288 20.7395 13.2803 24.4082 11.7418 28.3135C15.6472 32.2189 20.9726 34.3491 26.446 34.2307C31.1797 34.2307 39.6117 33.4023 43.0436 28.3135C42.0969 18.136 36.5347 4.37858 26.446 4.37858C25.3809 4.37858 24.4341 3.43184 24.4341 2.36675C24.4341 1.30166 25.3809 0.236572 26.5643 0.236572C40.2034 0.236572 46.4756 17.5443 47.1856 28.5502C47.1856 28.9052 47.0673 29.3786 46.9489 29.7337C43.7537 35.1775 36.5347 38.2544 26.5643 38.2544C26.446 38.1656 26.2093 38.1656 26.0909 38.1656Z" fill="#1D2D35"/>
</g>
<defs>
<clipPath id="clip0_1_3427">
<rect width="50" height="49.4083" fill="white"/>
</clipPath>
</defs>
</svg>

<svg xmlns="http://www.w3.org/2000/svg" width="64" height="64" fill="none" viewBox="0 0 50 50"><g clip-path="url(#a)"><path fill="#1D2D35" d="M45.175 30.68c-1.065 0-1.893-.828-2.011-1.893C42.454 18.609 36.89 4.26 26.566 4.26c-8.52 0-14.94 5.917-19.083 17.663-.355 1.065-1.538 1.657-2.603 1.183-1.065-.355-1.657-1.538-1.184-2.485C8.43 7.101 16.152.237 26.566.237c13.64 0 19.911 17.307 20.621 28.313.119 1.065-.71 2.13-1.893 2.13h-.118Z"/><path fill="#FFE000" d="M49.909 34.586 14.347 49.29.234 15.148l6.39-2.604L35.886.563 49.91 34.586Z" opacity=".4"/><path fill="#FFE000" d="m48.257 38.52-37.692 7.811-7.456-36.154 6.273-1.301 31.42-6.51 7.455 36.155Z"/><path fill="#1D2D35" d="M26.09 38.166A24.315 24.315 0 0 1 7.956 30c-.592-.474-.71-1.302-.474-2.012 1.302-3.432 4.734-11.39 9.113-11.509 2.248 0 3.905 1.775 5.207 3.195a8.065 8.065 0 0 0 1.42 1.42c1.065-1.065 3.077-4.378 4.616-7.81.473-1.065 1.656-1.42 2.721-.947 1.066.473 1.42 1.657.947 2.722-4.734 10.296-7.219 10.296-8.165 10.296-1.894 0-3.196-1.42-4.498-2.84-.591-.592-1.775-1.894-2.248-1.894-1.065.119-3.314 3.787-4.852 7.693a20.202 20.202 0 0 0 14.704 5.917c4.734 0 13.166-.829 16.598-5.918-.947-10.177-6.51-23.934-16.598-23.934-1.065 0-2.012-.947-2.012-2.012s.947-2.13 2.13-2.13c13.64 0 19.912 17.307 20.622 28.313 0 .355-.119.829-.237 1.184-3.195 5.444-10.414 8.52-20.385 8.52-.118-.088-.355-.088-.473-.088Z"/></g><defs><clipPath id="a"><path fill="#fff" d="M0 0h50v49.408H0z"/></clipPath></defs></svg>
